svgs/thin/walkie-talkie.svg

<svg xmlns="http://www.w3.org/2000/svg" viewBox="0 0 384 512"><!--! Font Awesome Pro 6.6.0 by @fontawesome - https://fontawesome.com License - https://fontawesome.com/license (Commercial License) Copyright 2024 Fonticons, Inc. --><path d="M96 8c0-4.4-3.6-8-8-8s-8 3.6-8 8l0 88L48 96C21.5 96 0 117.5 0 144L0 298.7c0 10.6 4.2 20.8 11.7 28.3L25 340.3c4.5 4.5 7 10.6 7 17L32 464c0 26.5 21.5 48 48 48l224 0c26.5 0 48-21.5 48-48l0-106.7c0-6.4 2.5-12.5 7-17L372.3 327c7.5-7.5 11.7-17.7 11.7-28.3L384 144c0-26.5-21.5-48-48-48l-16 0 0-8c0-17.7-14.3-32-32-32s-32 14.3-32 32l0 8-32 0 0-8c0-17.7-14.3-32-32-32s-32 14.3-32 32l0 8L96 96 96 8zM272 96l0-8c0-8.8 7.2-16 16-16s16 7.2 16 16l0 8-32 0zm-64-8l0 8-32 0 0-8c0-8.8 7.2-16 16-16s16 7.2 16 16zM88 112l248 0c17.7 0 32 14.3 32 32l0 154.7c0 6.4-2.5 12.5-7 17L347.7 329c-7.5 7.5-11.7 17.7-11.7 28.3L336 464c0 17.7-14.3 32-32 32L80 496c-17.7 0-32-14.3-32-32l0-106.7c0-10.6-4.2-20.8-11.7-28.3L23 315.7c-4.5-4.5-7-10.6-7-17L16 144c0-17.7 14.3-32 32-32l40 0zm8 72c0 4.4 3.6 8 8 8l176 0c4.4 0 8-3.6 8-8s-3.6-8-8-8l-176 0c-4.4 0-8 3.6-8 8zm0 64c0 4.4 3.6 8 8 8l176 0c4.4 0 8-3.6 8-8s-3.6-8-8-8l-176 0c-4.4 0-8 3.6-8 8zm0 64c0 4.4 3.6 8 8 8l176 0c4.4 0 8-3.6 8-8s-3.6-8-8-8l-176 0c-4.4 0-8 3.6-8 8z"/></svg>

<svg xmlns="http://www.w3.org/2000/svg" viewBox="0 0 384 512"><!--! Font Awesome Pro 6.4.2 by @fontawesome - https://fontawesome.com License - https://fontawesome.com/license (Commercial License) Copyright 2023 Fonticons, Inc. --><path d="M96 8c0-4.4-3.6-8-8-8s-8 3.6-8 8V96H48C21.5 96 0 117.5 0 144V298.7c0 10.6 4.2 20.8 11.7 28.3L25 340.3c4.5 4.5 7 10.6 7 17V464c0 26.5 21.5 48 48 48H304c26.5 0 48-21.5 48-48V357.3c0-6.4 2.5-12.5 7-17L372.3 327c7.5-7.5 11.7-17.7 11.7-28.3V144c0-26.5-21.5-48-48-48H320V88c0-17.7-14.3-32-32-32s-32 14.3-32 32v8H224V88c0-17.7-14.3-32-32-32s-32 14.3-32 32v8H96V8zM272 96V88c0-8.8 7.2-16 16-16s16 7.2 16 16v8H272zm-64-8v8H176V88c0-8.8 7.2-16 16-16s16 7.2 16 16zM88 112H336c17.7 0 32 14.3 32 32V298.7c0 6.4-2.5 12.5-7 17L347.7 329c-7.5 7.5-11.7 17.7-11.7 28.3V464c0 17.7-14.3 32-32 32H80c-17.7 0-32-14.3-32-32V357.3c0-10.6-4.2-20.8-11.7-28.3L23 315.7c-4.5-4.5-7-10.6-7-17V144c0-17.7 14.3-32 32-32H88zm8 72c0 4.4 3.6 8 8 8H280c4.4 0 8-3.6 8-8s-3.6-8-8-8H104c-4.4 0-8 3.6-8 8zm0 64c0 4.4 3.6 8 8 8H280c4.4 0 8-3.6 8-8s-3.6-8-8-8H104c-4.4 0-8 3.6-8 8zm0 64c0 4.4 3.6 8 8 8H280c4.4 0 8-3.6 8-8s-3.6-8-8-8H104c-4.4 0-8 3.6-8 8z"/></svg>
